icons/filled/square-x.svg

<svg xmlns="http://www.w3.org/2000/svg" width="24" height="24" viewBox="0 0 24 24" fill="currentColor"><path d="M19 2h-14a3 3 0 0 0 -3 3v14a3 3 0 0 0 3 3h14a3 3 0 0 0 3 -3v-14a3 3 0 0 0 -3 -3zm-9.387 6.21l.094 .083l2.293 2.292l2.293 -2.292a1 1 0 0 1 1.497 1.32l-.083 .094l-2.292 2.293l2.292 2.293a1 1 0 0 1 -1.32 1.497l-.094 -.083l-2.293 -2.292l-2.293 2.292a1 1 0 0 1 -1.497 -1.32l.083 -.094l2.292 -2.293l-2.292 -2.293a1 1 0 0 1 1.32 -1.497z"/></svg>

<svg xmlns="http://www.w3.org/2000/svg" width="24" height="24" fill="currentColor"><path d="M19 2H5a3 3 0 0 0-3 3v14a3 3 0 0 0 3 3h14a3 3 0 0 0 3-3V5a3 3 0 0 0-3-3M9.613 8.21l.094.083L12 10.585l2.293-2.292a1 1 0 0 1 1.497 1.32l-.083.094L13.415 12l2.292 2.293a1 1 0 0 1-1.32 1.497l-.094-.083L12 13.415l-2.293 2.292a1 1 0 0 1-1.497-1.32l.083-.094L10.585 12 8.293 9.707a1 1 0 0 1 1.32-1.497"/></svg>
